X:3050
T:Cincinnati Hornpipe
M:C|
L:1/8
C:Trad.
K:D
DAFA DAFA|dAfA eAfA|gAfA edcd|edcB AGFE|
DAFA DAFA|dAfA eAfA|gAfA edcd|cdeg fdd2:|
|:eAAA fAAA|gAAA fAAA|eAfA gAfA|edcB AGFE|
Dddd ceee|dfff eggg|fgaf bgec|d2f2 d2A2:|


